X: 64
T: Pray what is that to you
R: hornpipe
M: 2/4
L: 1/8
Z: 2012 John Chambers <jc:trillian.mit.edu>
B: Saml. Ann & Peter Thompson "Twenty Four Country Dances for the Year 1791", London 1791, p.32 #2
K: G
% - - - - - - - - - - - - - - - - - - - - - - - - -
d |\
d>BB>d | d>BB>d | e>cc>e | g2e2 |\
d>BB>d | d>BB>d | e>aA>f | g2G :|
|: g |\
g>ee>c | d>BB>G | g>ee>c | faAd |\
d>BB>d | d>BB>d | e>aA>f | g2G :|
% - - - - - - - - Dance description - - - - - - - -
%%begintext align
%% Cast off one Cu and Foot it .|.
%% cast up again and foot it :|.
%% lead down two Cu: up again and cast off .|:
%% hands 4 quite round :|:
%%endtext

%%sep 1 1 500
%%sep 1 1 500
